X:1132
T:Polska 
T:ur 75 polskor från Uppland och Södermanland (nr 47)
B:75 polskor från Uppland och Södermanland, nr 47
N:[[http://www.stefanlinden.se/S/L/Bagge%2075%20p%20fr%20Up%20o%20So.pdf|Notboken som pdf]]
N:Jämför EÖ, nr 344.
M:3/4
N:Se även [[Musik/1153|+]]
R:Polska
O:Uppland / Södermanland
Z:Nils L
%C?
M:3/4
L:1/8
K:C
!f!G | (c>B c).G .E.G | c(c/B/ c)(c/G/ .E).G | c>c d>d e>e | f>f (g2-g) ::
z | {/g}f(e/f/ .a).B .d!>!f- | f(^d/e/ g).G .c!>!e- | e(^c/d/ f).A .B.d | c{/d}(B/c/ c)(e a)g- |
g/(f/e/f/ a).B .d!>!f- | f/(e/^d/e/ g).G .c!>!e- | e/(d/^c/d/ f).A .B.d | (d2 {ed}c2) .c' :|
(:musicend:)

[[!Ackord]]

(:music:)
